!!!COM: Music21
!!!OTL: Valse do Coxo
!!!OMV: pezas_valses_valse-do-coxo_valse-do-coxo-partitura.musicxml
**kern
*part1
*staff1
*I"Bagpipes
*I'Bag
*clefG^2
*k[]
*M3/4
=1
!LO:TX:a:t=Moderato
4.gg
8gg
4gg
=
4gg
4aa
4gg
=
2.bb
=
4bb
4dd
4ee
=
2ff
[4bb
=
4bb]
2aa
=
8ggL
8aaJ
8ggL
8ffJ
[4ee
=
4ee]
4ee
4ff
=
2gg
4bb
=
2aa
4gg
!!linebreak:original
=
8ffL
8ggJ
8ffL
8eeJ
4dd
=
4dd
4dd
4ee
=
2ff
4aa
=
2gg
4ff
=
[2.ee
=
2.ee]
=||
*M3/4
!LO:TX:a:t=Moderato
4.gg
8gg
4gg
=
4gg
4aa
4gg
=
2.bb
=
4bb
4dd
4ee
=
2ff
[4bb
=
4bb]
2aa
!!linebreak:original
=
8ggL
8aaJ
8ggL
8ffJ
[4ee
=
4ee]
4ee
4ff
=
2gg
4bb
=
2aa
4gg
=
8ffL
8ggJ
8ffL
8eeJ
4dd
=
4dd
4dd
4ee
=
2ff
4aa
=
2gg
4ff
=
[2.ee
=
4ee]
8ggL
8aaJ
8ggL
8ffJ
=||
4ee
4gg
4ee
!!linebreak:original
=
4gg
4ee
4gg
=
8ffL
8ggJ
8ffL
8eeJ
4dd
=
4dd
8aaL
8bbJ
8aaL
8ggJ
=
4ff
4aa
4ff
=
4aa
4ff
4gg
=
8bbL
8aaJ
8ggL
8ffJ
[4ee
=
4ee]
8ggL
8aaJ
8ggL
8ffJ
=
4ee
4gg
4ee
=
4gg
4ee
4gg
!!linebreak:original
=
8ffL
8eeJ
8ffL
8ggJ
[4aa
=
4aa]
8ffL
8ggJ
8aaL
8bbJ
=
4ff
8ddL
8eeJ
8ffL
8ggJ
=
[2.ee
=
4ee]
8ggL
8aaJ
8ggL
8ffJ
=||
4ee
4gg
4ee
=
4gg
4ee
4gg
=
8ffL
8ggJ
8ffL
8eeJ
4dd
=
4dd
8aaL
8bbJ
8aaL
8ggJ
!!linebreak:original
=
4ff
4aa
4ff
=
4aa
4ff
4gg
=
8bbL
8aaJ
8ggL
8ffJ
[4ee
=
4ee]
8ggL
8aaJ
8ggL
8ffJ
=
4ee
4gg
4ee
=
4gg
4ee
4gg
=
8ffL
8eeJ
8ffL
8ggJ
[4aa
=
4aa]
8ffL
8ggJ
8aaL
8bbJ
=
4ff
8ddL
8eeJ
8ffL
8ggJ
=
[2.ee
!!pagebreak:original
=
2.ee]
==
*-
!!!system-decoration: s1,s2
